img/gallery-item-tv.svg

<svg xmlns="http://www.w3.org/2000/svg" width="49" height="38"><path fill-rule="evenodd" fill="#828C8E" d="M47.27 33.02c-.291 1.221-1.312 2.133-2.559 2.284-3.154.382-6.33.663-9.506.862.172.109.282.22.282.334 0 .829-4.705 1.5-10.511 1.5-5.804 0-10.51-.671-10.51-1.5 0-.114.11-.225.282-.334-3.176-.199-6.352-.48-9.506-.862-1.246-.151-2.268-1.063-2.559-2.284-2.296-9.635-2.296-19.405 0-29.039.291-1.222 1.313-2.133 2.559-2.284C11.789.903 18.428.5 24.976.5c6.549 0 13.188.403 19.735 1.197 1.247.151 2.268 1.062 2.559 2.284 2.296 9.634 2.296 19.404 0 29.039zM44.349 4.675c-12.915-1.566-25.83-1.566-38.745 0-2.196 9.217-2.196 18.433 0 27.651 12.915 1.565 25.83 1.565 38.745 0 2.197-9.218 2.197-18.434 0-27.651zM43.745 24.5H39.24c-.414 0-.75-.335-.75-.75 0-.414.336-.75.75-.75h4.505c.415 0 .751.336.751.75 0 .415-.336.75-.751.75zm0-4.5H39.24c-.414 0-.75-.335-.75-.75s.336-.75.75-.75h4.505c.415 0 .751.335.751.75s-.336.75-.751.75zm-3.003-7.5c-1.243 0-2.252-1.008-2.252-2.25S39.499 8 40.742 8c1.243 0 2.252 1.008 2.252 2.25s-1.009 2.25-2.252 2.25zm0-3c-.413 0-.751.337-.751.75s.338.75.751.75.751-.337.751-.75-.338-.75-.751-.75zm2.252 18.75c0 .415-.336.75-.751.75h-4.504c-.415 0-.751-.335-.751-.75 0-.414.336-.75.751-.75h4.504c.415 0 .751.336.751.75zm-8.761.992c-4.066.835-8.19 1.258-12.259 1.258-4.069 0-8.194-.423-12.26-1.258-.526-.109-.956-.489-1.125-1.001-2.165-6.571-2.165-13.233 0-19.804.169-.512.599-.892 1.125-1.001 4.066-.835 8.191-1.258 12.26-1.258 4.069 0 8.193.423 12.259 1.258.527.109.956.489 1.125 1.001 2.165 6.571 2.165 13.233 0 19.804-.169.512-.598.892-1.125 1.001zm-.302-20.336c-7.971-1.637-15.944-1.637-23.915 0-2.073 6.29-2.073 12.576 0 18.867 7.971 1.636 15.944 1.636 23.915 0 2.073-6.291 2.073-12.577 0-18.867zm-12.708 4.798l-5.629.386c-.411.042-.792.41-.848.818l-.25 2.842c-.017.413-.367.75-.777.75-.413 0-.732-.337-.712-.748l.459-4.18c.069-.407.461-.779.871-.826l6.886-.539c.413-.016.751.308.751.721s-.338.761-.751.776z"/></svg>

﻿<svg 
 xmlns="http://www.w3.org/2000/svg"
 xmlns:xlink="http://www.w3.org/1999/xlink"
 width="49px" height="38px">
<path fill-rule="evenodd"  fill="rgb(130, 140, 142)"
 d="M47.270,33.020 C46.979,34.241 45.958,35.153 44.711,35.304 C41.557,35.686 38.381,35.967 35.205,36.166 C35.377,36.275 35.487,36.386 35.487,36.500 C35.487,37.329 30.782,38.000 24.976,38.000 C19.172,38.000 14.466,37.329 14.466,36.500 C14.466,36.386 14.576,36.275 14.748,36.166 C11.572,35.967 8.396,35.686 5.242,35.304 C3.996,35.153 2.974,34.241 2.683,33.020 C0.387,23.385 0.387,13.615 2.683,3.981 C2.974,2.759 3.996,1.848 5.242,1.697 C11.789,0.903 18.428,0.500 24.976,0.500 C31.525,0.500 38.164,0.903 44.711,1.697 C45.958,1.848 46.979,2.759 47.270,3.981 C49.566,13.615 49.566,23.385 47.270,33.020 ZM44.349,4.675 C31.434,3.109 18.519,3.109 5.604,4.675 C3.408,13.892 3.408,23.108 5.604,32.326 C18.519,33.891 31.434,33.891 44.349,32.326 C46.546,23.108 46.546,13.892 44.349,4.675 ZM43.745,24.500 L39.240,24.500 C38.826,24.500 38.490,24.165 38.490,23.750 C38.490,23.336 38.826,23.000 39.240,23.000 L43.745,23.000 C44.160,23.000 44.496,23.336 44.496,23.750 C44.496,24.165 44.160,24.500 43.745,24.500 ZM43.745,20.000 L39.240,20.000 C38.826,20.000 38.490,19.665 38.490,19.250 C38.490,18.835 38.826,18.500 39.240,18.500 L43.745,18.500 C44.160,18.500 44.496,18.835 44.496,19.250 C44.496,19.665 44.160,20.000 43.745,20.000 ZM40.742,12.500 C39.499,12.500 38.490,11.492 38.490,10.250 C38.490,9.008 39.499,8.000 40.742,8.000 C41.985,8.000 42.994,9.008 42.994,10.250 C42.994,11.492 41.985,12.500 40.742,12.500 ZM40.742,9.500 C40.329,9.500 39.991,9.837 39.991,10.250 C39.991,10.663 40.329,11.000 40.742,11.000 C41.155,11.000 41.493,10.663 41.493,10.250 C41.493,9.837 41.155,9.500 40.742,9.500 ZM42.994,28.250 C42.994,28.665 42.658,29.000 42.243,29.000 L37.739,29.000 C37.324,29.000 36.988,28.665 36.988,28.250 C36.988,27.836 37.324,27.500 37.739,27.500 L42.243,27.500 C42.658,27.500 42.994,27.836 42.994,28.250 ZM34.233,29.242 C30.167,30.077 26.043,30.500 21.974,30.500 C17.905,30.500 13.780,30.077 9.714,29.242 C9.188,29.133 8.758,28.753 8.589,28.241 C6.424,21.670 6.424,15.008 8.589,8.437 C8.758,7.925 9.188,7.545 9.714,7.436 C13.780,6.601 17.905,6.178 21.974,6.178 C26.043,6.178 30.167,6.601 34.233,7.436 C34.760,7.545 35.189,7.925 35.358,8.437 C37.523,15.008 37.523,21.670 35.358,28.241 C35.189,28.753 34.760,29.133 34.233,29.242 ZM33.931,8.906 C25.960,7.269 17.987,7.269 10.016,8.906 C7.943,15.196 7.943,21.482 10.016,27.773 C17.987,29.409 25.960,29.409 33.931,27.773 C36.004,21.482 36.004,15.196 33.931,8.906 ZM21.223,13.704 L15.594,14.090 C15.183,14.132 14.802,14.500 14.746,14.908 L14.496,17.750 C14.479,18.163 14.129,18.500 13.719,18.500 C13.306,18.500 12.987,18.163 13.007,17.752 L13.466,13.572 C13.535,13.165 13.927,12.793 14.337,12.746 L21.223,12.207 C21.636,12.191 21.974,12.515 21.974,12.928 C21.974,13.341 21.636,13.689 21.223,13.704 Z"/>
</svg>
